X:408
T: Eilean Beag Donn A' Chuain
M: 3/4
L: 1/8
R: waltz
K: Em
D2 |\
E4E2|G4A2|F4E2|D4F2|A2BAF2|E4D2|E6-|1 E4  :|2E6|
B4B2|B4B2|c4B2|c4B2|A3BA2|G3FE2|F6|d4c2|
B4B2|E4G2|F3ED2|D4F2|A2BAF2|E4D2|E6-|E4|]
